SVG_Azure_All/Mobile Application.svg

<?xml version="1.0" encoding="UTF-8" standalone="no"?>
<!-- Generated by Microsoft Visio, SVG Export Mobile Application.svg Page-1 -->

<svg
   xmlns:dc="http://purl.org/dc/elements/1.1/"
   xmlns:cc="http://creativecommons.org/ns#"
   xmlns:rdf="http://www.w3.org/1999/02/22-rdf-syntax-ns#"
   xmlns:svg="http://www.w3.org/2000/svg"
   xmlns="http://www.w3.org/2000/svg"
   xmlns:sodipodi="http://sodipodi.sourceforge.net/DTD/sodipodi-0.dtd"
   xmlns:inkscape="http://www.inkscape.org/namespaces/inkscape"
   width="0.55124998in"
   height="0.78736115in"
   viewBox="0 0 39.690011 56.689981"
   xml:space="preserve"
   class="st11"
   version="1.1"
   id="svg65"
   sodipodi:docname="Mobile Application.svg"
   style="font-size:12px;overflow:visible;color-interpolation-filters:sRGB;fill:none;fill-rule:evenodd;stroke-linecap:square;stroke-miterlimit:3"
   inkscape:version="0.92.5 (2060ec1f9f, 2020-04-08)"><metadata
   id="metadata71"><rdf:RDF><cc:Work
       rdf:about=""><dc:format>image/svg+xml</dc:format><dc:type
         rdf:resource="http://purl.org/dc/dcmitype/StillImage" /></cc:Work></rdf:RDF></metadata><defs
   id="defs69" /><sodipodi:namedview
   pagecolor="#ffffff"
   bordercolor="#666666"
   borderopacity="1"
   objecttolerance="10"
   gridtolerance="10"
   guidetolerance="10"
   inkscape:pageopacity="0"
   inkscape:pageshadow="2"
   inkscape:window-width="640"
   inkscape:window-height="480"
   id="namedview67"
   showgrid="false"
   inkscape:zoom="1.6592759"
   inkscape:cx="26.456651"
   inkscape:cy="25.757044"
   inkscape:window-x="0"
   inkscape:window-y="0"
   inkscape:window-maximized="0"
   inkscape:current-layer="svg65" />
	<style
   type="text/css"
   id="style2">
	<![CDATA[
		.st1 {fill:#3e3e3e;stroke:none;stroke-linecap:butt;stroke-width:15.9643}
		.st2 {fill:#59b4d9;stroke:none;stroke-linecap:butt;stroke-width:15.9643}
		.st3 {fill:#ffffff;stroke:none;stroke-linecap:butt;stroke-width:15.9643}
		.st4 {fill:#b8d432;stroke:none;stroke-linecap:butt;stroke-width:15.9643}
		.st5 {fill:#ffffff;fill-opacity:0.15;stroke:none;stroke-linecap:butt;stroke-width:15.9643}
		.st6 {fill:#1e1e1e;stroke:none;stroke-linecap:butt;stroke-width:15.9643}
		.st7 {fill:#ffffff}
		.st8 {stroke:none;stroke-linecap:butt;stroke-width:15.9643}
		.st9 {fill:#ffffff;fill-opacity:0.7}
		.st10 {fill:#ffffff;fill-opacity:0.4}
		.st11 {fill:none;fill-rule:evenodd;font-size:12px;overflow:visible;stroke-linecap:square;stroke-miterlimit:3}
	]]>
	</style>

	<g
   id="g63"
   transform="translate(-15.9643,-15.964298)">
		<title
   id="title4">Page-1</title>
		<g
   id="group3009-1"
   transform="translate(15.9643,-34.0157)">
			<title
   id="title6">Mobile Application</title>
			<g
   id="group3010-2">
				<title
   id="title8">layer1</title>
				<g
   id="shape3011-3">
					<title
   id="title10">path2</title>
					<path
   d="m 39.69,103.27 a 3.45638,3.40157 0 0 1 -3.46,3.4 H 3.46 A 3.45638,3.40157 0 0 1 0,103.27 V 53.38 a 3.45638,3.40157 0 0 1 3.46,-3.4 h 32.77 a 3.45638,3.40157 0 0 1 3.46,3.4 z"
   class="st1"
   id="path12"
   inkscape:connector-curvature="0"
   style="fill:#3e3e3e;stroke:none;stroke-width:15.96430016;stroke-linecap:butt" />
				</g>
				<g
   id="shape3012-5"
   transform="translate(2.56236,-11.0869)">
					<title
   id="title15">path4</title>
					<rect
   x="0"
   y="66.736198"
   width="34.563801"
   height="39.936699"
   class="st2"
   id="rect17"
   style="fill:#59b4d9;stroke:none;stroke-width:15.96430016;stroke-linecap:butt" />
				</g>
				<g
   id="shape3013-7"
   transform="translate(16.5135,-2.20598)">
					<title
   id="title20">path6</title>
					<path
   d="m 6.66,103.33 a 3.33,3.2771944 0 1 1 -6.66,0 3.33,3.2771944 0 0 1 6.66,0 z"
   class="st3"
   id="path22"
   inkscape:connector-curvature="0"
   style="fill:#ffffff;stroke:none;stroke-width:15.96430016;stroke-linecap:butt" />
				</g>
				<g
   id="shape3014-9"
   transform="translate(17.6587,-3.39362)">
					<title
   id="title25">path8</title>
					<path
   d="m 4.37,104.52 a 2.185,2.1503527 0 1 1 -4.37,0 2.185,2.1503527 0 0 1 4.37,0 z"
   class="st4"
   id="path27"
   inkscape:connector-curvature="0"
   style="fill:#b8d432;stroke:none;stroke-width:15.96430016;stroke-linecap:butt" />
				</g>
				<g
   id="shape3015-11">
					<title
   id="title30">path10</title>
					<path
   d="M 2.56,95.59 V 55.65 h 26.23 l 2.34,-5.67 H 3.46 A 3.45638,3.40157 -180 0 0 0,53.38 v 49.89 a 3.45638,3.40157 -180 0 0 3.46,3.4 h 4.25 l 4.58,-11.08 z"
   class="st5"
   id="path32"
   inkscape:connector-curvature="0"
   style="fill:#ffffff;fill-opacity:0.15;stroke:none;stroke-width:15.96430016;stroke-linecap:butt" />
				</g>
				<g
   id="shape3016-13"
   transform="translate(13.9245,-52.662)">
					<title
   id="title35">path12</title>
					<path
   d="m 11.81,105.84 c 0,0.46 -0.38,0.83 -0.85,0.83 H 0.88 a 0.851422,0.837921 0 1 1 0,-1.67471 L 10.96,105 c 0.47,0 0.85,0.37 0.85,0.84 z"
   class="st6"
   id="path37"
   inkscape:connector-curvature="0"
   style="fill:#1e1e1e;stroke:none;stroke-width:15.96430016;stroke-linecap:butt" />
				</g>
				<g
   id="shape3017-15"
   transform="translate(9.42505,-32.5289)">
					<title
   id="title40">path14</title>
					<path
   d="m 16.31,85.7 c 0,0.47 -0.38,0.84 -0.85,0.84 H 5.38 a 0.851422,0.837921 0 1 1 0,-1.67471 L 15.46,84.87 c 0.47,0 0.85,0.37 0.85,0.83 z m -5.86,20.97 a 0.320291,0.315213 0 0 1 -0.154582,-0.0433 L 0.15,100.87 a 0.307618,0.30274 0 0 1 0,-0.5227 L 10.23,94.62 a 0.30877,0.303874 0 0 1 0.303076,0 L 20.68,100.38 a 0.304161,0.299339 0 0 1 0.1511,0.26098 0.301857,0.297071 0 0 1 -0.1511,0.26099 L 10.61,106.63 a 0.311074,0.306142 0 0 1 -0.155456,0.0433 z"
   class="st7"
   id="path42"
   inkscape:connector-curvature="0"
   style="fill:#ffffff" />
					<path
   d="m 16.31,85.7 c 0,0.47 -0.38,0.84 -0.85,0.84 H 5.38 a 0.851422,0.837921 0 1 1 0,-1.67471 L 15.46,84.87 c 0.47,0 0.85,0.37 0.85,0.83 m -5.86,20.97 a 0.320291,0.315213 0 0 1 -0.154582,-0.0433 L 0.15,100.87 a 0.307618,0.30274 0 0 1 0,-0.5227 L 10.23,94.62 a 0.30877,0.303874 0 0 1 0.303076,0 L 20.68,100.38 a 0.304161,0.299339 0 0 1 0.1511,0.26098 0.301857,0.297071 0 0 1 -0.1511,0.26099 L 10.61,106.63 a 0.311074,0.306142 0 0 1 -0.155456,0.0433"
   class="st8"
   id="path44"
   inkscape:connector-curvature="0"
   style="stroke:none;stroke-width:15.96430016;stroke-linecap:butt" />
				</g>
				<g
   id="shape3018-18"
   transform="translate(7.99437,-18.5238)">
					<title
   id="title47">path16</title>
					<path
   d="m 10.42,106.67 a 0.289184,0.284598 0 0 1 -0.154585,-0.0429 L 0.16,100.89 A 0.299553,0.294803 0 0 1 0.003241,100.62816 L 0,89.1 c 0,-0.11 0.06,-0.21 0.16,-0.26 a 0.303009,0.298205 0 0 1 0.308733,0 L 10.58,94.58 a 0.322595,0.31748 0 0 1 0.149796,0.263984 L 10.73,106.37 a 0.313379,0.308409 0 0 1 -0.149796,0.26184 0.322595,0.31748 0 0 1 -0.153278,0.0429 z"
   class="st9"
   id="path49"
   inkscape:connector-curvature="0"
   style="fill:#ffffff;fill-opacity:0.7" />
					<path
   d="m 10.42,106.67 a 0.289184,0.284598 0 0 1 -0.154585,-0.0429 L 0.16,100.89 A 0.299553,0.294803 0 0 1 0.003241,100.62816 L 0,89.1 c 0,-0.11 0.06,-0.21 0.16,-0.26 a 0.303009,0.298205 0 0 1 0.308733,0 L 10.58,94.58 a 0.322595,0.31748 0 0 1 0.149796,0.263984 L 10.73,106.37 a 0.313379,0.308409 0 0 1 -0.149796,0.26184 0.322595,0.31748 0 0 1 -0.153278,0.0429"
   class="st8"
   id="path51"
   inkscape:connector-curvature="0"
   style="stroke:none;stroke-width:15.96430016;stroke-linecap:butt" />
				</g>
				<g
   id="shape3019-21"
   transform="translate(20.9735,-18.5238)">
					<title
   id="title54">path18</title>
					<path
   d="m 0.31,106.67 a 0.33066,0.325417 0 0 1 -0.158939,-0.0429 0.311074,0.306142 0 0 1 -0.14849,-0.26184 L 0,94.91 c 0,-0.1 0.06,-0.2 0.15,-0.26 l 10.11,-5.74 a 0.299553,0.294803 0 0 1 0.303943,0 0.303009,0.298205 0 0 1 0.155456,0.260555 L 10.72,100.62 a 0.300705,0.295937 0 0 1 -0.155456,0.26184 L 0.46,106.63 a 0.271902,0.26759 0 0 1 -0.14849,0.0429 z"
   class="st10"
   id="path56"
   inkscape:connector-curvature="0"
   style="fill:#ffffff;fill-opacity:0.4" />
					<path
   d="m 0.31,106.67 a 0.33066,0.325417 0 0 1 -0.158939,-0.0429 0.311074,0.306142 0 0 1 -0.14849,-0.26184 L 0,94.91 c 0,-0.1 0.06,-0.2 0.15,-0.26 l 10.11,-5.74 a 0.299553,0.294803 0 0 1 0.303943,0 0.303009,0.298205 0 0 1 0.155456,0.260555 L 10.72,100.62 a 0.300705,0.295937 0 0 1 -0.155456,0.26184 L 0.46,106.63 a 0.271902,0.26759 0 0 1 -0.14849,0.0429"
   class="st8"
   id="path58"
   inkscape:connector-curvature="0"
   style="stroke:none;stroke-width:15.96430016;stroke-linecap:butt" />
				</g>
			</g>
		</g>
	</g>
</svg>

<?xml version="1.0" encoding="UTF-8" standalone="no"?>
<!DOCTYPE svg PUBLIC "-//W3C//DTD SVG 1.1//EN" "http://www.w3.org/Graphics/SVG/1.1/DTD/svg11.dtd">
<!-- Generated by Microsoft Visio, SVG Export Mobile Application.svg Page-1 -->
<svg xmlns="http://www.w3.org/2000/svg" xmlns:xlink="http://www.w3.org/1999/xlink" xmlns:ev="http://www.w3.org/2001/xml-events"
		width="0.994633in" height="1.48157in" viewBox="0 0 71.6136 106.673" xml:space="preserve" color-interpolation-filters="sRGB"
		class="st11">
	<style type="text/css">
	<![CDATA[
		.st1 {fill:#3e3e3e;stroke:none;stroke-linecap:butt;stroke-width:15.9643}
		.st2 {fill:#59b4d9;stroke:none;stroke-linecap:butt;stroke-width:15.9643}
		.st3 {fill:#ffffff;stroke:none;stroke-linecap:butt;stroke-width:15.9643}
		.st4 {fill:#b8d432;stroke:none;stroke-linecap:butt;stroke-width:15.9643}
		.st5 {fill:#ffffff;fill-opacity:0.15;stroke:none;stroke-linecap:butt;stroke-width:15.9643}
		.st6 {fill:#1e1e1e;stroke:none;stroke-linecap:butt;stroke-width:15.9643}
		.st7 {fill:#ffffff}
		.st8 {stroke:none;stroke-linecap:butt;stroke-width:15.9643}
		.st9 {fill:#ffffff;fill-opacity:0.7}
		.st10 {fill:#ffffff;fill-opacity:0.4}
		.st11 {fill:none;fill-rule:evenodd;font-size:12px;overflow:visible;stroke-linecap:square;stroke-miterlimit:3}
	]]>
	</style>

	<g>
		<title>Page-1</title>
		<g id="group2983-1" transform="translate(15.9643,-34.0157)">
			<title>Mobile Application</title>
			<g id="group2984-2">
				<title>layer1</title>
				<g id="shape2985-3">
					<title>path2</title>
					<path d="M39.69 103.27 A3.45638 3.40157 0 0 1 36.23 106.67 L3.46 106.67 A3.45638 3.40157 0 0 1 0 103.27 L0 53.38
								 A3.45638 3.40157 0 0 1 3.46 49.98 L36.23 49.98 A3.45638 3.40157 0 0 1 39.69 53.38 L39.69 103.27
								 Z" class="st1"/>
				</g>
				<g id="shape2986-5" transform="translate(2.56236,-11.0869)">
					<title>path4</title>
					<rect x="0" y="66.7362" width="34.5638" height="39.9367" class="st2"/>
				</g>
				<g id="shape2987-7" transform="translate(16.5135,-2.20598)">
					<title>path6</title>
					<path d="M6.66 103.33 A3.32965 3.27685 0 1 1 0 103.33 A3.32965 3.27685 0 0 1 6.66 103.33 Z" class="st3"/>
				</g>
				<g id="shape2988-9" transform="translate(17.6587,-3.39362)">
					<title>path8</title>
					<path d="M4.37 104.52 A2.18328 2.14866 0 1 1 -0 104.52 A2.18328 2.14866 0 0 1 4.37 104.52 Z" class="st4"/>
				</g>
				<g id="shape2989-11">
					<title>path10</title>
					<path d="M2.56 95.59 L2.56 55.65 L28.79 55.65 L31.13 49.98 L3.46 49.98 A3.45638 3.40157 -180 0 0 0 53.38 L0 103.27
								 A3.45638 3.40157 -180 0 0 3.46 106.67 L7.71 106.67 L12.29 95.59 L2.56 95.59 Z" class="st5"/>
				</g>
				<g id="shape2990-13" transform="translate(13.9245,-52.662)">
					<title>path12</title>
					<path d="M11.81 105.84 C11.81 106.3 11.43 106.67 10.96 106.67 L0.88 106.67 a0.851422 0.837921 0 1 1 -1.18794E-14
								 -1.67471 L10.96 105 C11.43 105 11.81 105.37 11.81 105.84 Z" class="st6"/>
				</g>
				<g id="shape2991-15" transform="translate(9.42505,-32.5289)">
					<title>path14</title>
					<path d="M16.31 85.7 C16.31 86.17 15.93 86.54 15.46 86.54 L5.38 86.54 a0.851422 0.837921 0 1 1 -1.15463E-14 -1.67471
								 L15.46 84.87 C15.93 84.87 16.31 85.24 16.31 85.7 ZM10.45 106.67 a0.320291 0.315213 0 0 1 -0.154582
								 -0.0432799 L0.15 100.87 a0.307618 0.30274 0 0 1 -6.66134E-15 -0.522697 L10.23 94.62 a0.30877 0.303874
								 0 0 1 0.303076 -1.42109E-14 L20.68 100.38 a0.304161 0.299339 0 0 1 0.1511 0.260984 a0.301857 0.297071
								 0 0 1 -0.1511 0.260984 L10.61 106.63 a0.311074 0.306142 0 0 1 -0.155456 0.0432799 L10.45 106.67
								 Z" class="st7"/>
					<path d="M16.31 85.7 C16.31 86.17 15.93 86.54 15.46 86.54 L5.38 86.54 a0.851422 0.837921 0 1 1 -1.15463E-14 -1.67471
								 L15.46 84.87 C15.93 84.87 16.31 85.24 16.31 85.7M10.45 106.67 a0.320291 0.315213 0 0 1 -0.154582
								 -0.0432799 L0.15 100.87 a0.307618 0.30274 0 0 1 -6.66134E-15 -0.522697 L10.23 94.62 a0.30877 0.303874
								 0 0 1 0.303076 -1.42109E-14 L20.68 100.38 a0.304161 0.299339 0 0 1 0.1511 0.260984 a0.301857 0.297071
								 0 0 1 -0.1511 0.260984 L10.61 106.63 a0.311074 0.306142 0 0 1 -0.155456 0.0432799" class="st8"/>
				</g>
				<g id="shape2992-18" transform="translate(7.99437,-18.5238)">
					<title>path16</title>
					<path d="M10.42 106.67 a0.289184 0.284598 0 0 1 -0.154585 -0.0428551 L0.16 100.89 a0.299553 0.294803 0 0 1 -0.156759
								 -0.261841 L0 89.1 C0 88.99 0.06 88.89 0.16 88.84 a0.303009 0.298205 0 0 1 0.308733 4.26326E-14 L10.58
								 94.58 a0.322595 0.31748 0 0 1 0.149796 0.263984 L10.73 106.37 a0.313379 0.308409 0 0 1 -0.149796
								 0.261839 a0.322595 0.31748 0 0 1 -0.153278 0.0428551 L10.42 106.67 Z" class="st9"/>
					<path d="M10.42 106.67 a0.289184 0.284598 0 0 1 -0.154585 -0.0428551 L0.16 100.89 a0.299553 0.294803 0 0 1 -0.156759
								 -0.261841 L0 89.1 C0 88.99 0.06 88.89 0.16 88.84 a0.303009 0.298205 0 0 1 0.308733 4.26326E-14 L10.58
								 94.58 a0.322595 0.31748 0 0 1 0.149796 0.263984 L10.73 106.37 a0.313379 0.308409 0 0 1 -0.149796
								 0.261839 a0.322595 0.31748 0 0 1 -0.153278 0.0428551" class="st8"/>
				</g>
				<g id="shape2993-21" transform="translate(20.9735,-18.5238)">
					<title>path18</title>
					<path d="M0.31 106.67 a0.33066 0.325417 0 0 1 -0.158939 -0.0428551 a0.311074 0.306142 0 0 1 -0.14849 -0.261843
								 L0 94.91 C0 94.81 0.06 94.71 0.15 94.65 L10.26 88.91 a0.299553 0.294803 0 0 1 0.303943 -1.42109E-14
								 a0.303009 0.298205 0 0 1 0.155456 0.260555 L10.72 100.62 a0.300705 0.295937 0 0 1 -0.155456 0.261841
								 L0.46 106.63 a0.271902 0.26759 0 0 1 -0.14849 0.0428551 L0.31 106.67 Z" class="st10"/>
					<path d="M0.31 106.67 a0.33066 0.325417 0 0 1 -0.158939 -0.0428551 a0.311074 0.306142 0 0 1 -0.14849 -0.261843
								 L0 94.91 C0 94.81 0.06 94.71 0.15 94.65 L10.26 88.91 a0.299553 0.294803 0 0 1 0.303943 -1.42109E-14
								 a0.303009 0.298205 0 0 1 0.155456 0.260555 L10.72 100.62 a0.300705 0.295937 0 0 1 -0.155456 0.261841
								 L0.46 106.63 a0.271902 0.26759 0 0 1 -0.14849 0.0428551" class="st8"/>
				</g>
			</g>
		</g>
	</g>
</svg>
